WindowsPhone/svg/appbar.settings.svg

<?xml version="1.0" encoding="UTF-8" standalone="no"?>
<svg
   xmlns:dc="http://purl.org/dc/elements/1.1/"
   xmlns:cc="http://creativecommons.org/ns#"
   xmlns:rdf="http://www.w3.org/1999/02/22-rdf-syntax-ns#"
   xmlns:svg="http://www.w3.org/2000/svg"
   xmlns="http://www.w3.org/2000/svg"
   xmlns:sodipodi="http://sodipodi.sourceforge.net/DTD/sodipodi-0.dtd"
   xmlns:inkscape="http://www.inkscape.org/namespaces/inkscape"
   version="1.1"
   width="76"
   height="76"
   viewBox="0 0 76.00 76.00"
   enable-background="new 0 0 76.00 76.00"
   xml:space="preserve"
   id="svg2"
   inkscape:version="0.91 r13725"
   sodipodi:docname="appbar.settings.svg"><metadata
     id="metadata10"><rdf:RDF><cc:Work
         rdf:about=""><dc:format>image/svg+xml</dc:format><dc:type
           rdf:resource="http://purl.org/dc/dcmitype/StillImage" /></cc:Work></rdf:RDF></metadata><defs
     id="defs8" /><sodipodi:namedview
     pagecolor="#ffffff"
     bordercolor="#666666"
     borderopacity="1"
     objecttolerance="10"
     gridtolerance="10"
     guidetolerance="10"
     inkscape:pageopacity="0"
     inkscape:pageshadow="2"
     inkscape:window-width="1074"
     inkscape:window-height="849"
     id="namedview6"
     showgrid="false"
     inkscape:zoom="3.1052632"
     inkscape:cx="38"
     inkscape:cy="38"
     inkscape:window-x="771"
     inkscape:window-y="113"
     inkscape:window-maximized="0"
     inkscape:current-layer="layer3" /><g
     inkscape:groupmode="layer"
     id="layer1"
     inkscape:label="active"
     style="display:none"><path
       style="fill:#000000;fill-opacity:1;stroke-linejoin:round"
       d="m 38,23.5 c 0.8643,0 1.7109,0.0756 2.5337,0.2206 l 2.0938,-5.1825 5.5626,2.2489 -2.0937,5.1822 c 1.5509,1.0457 2.8887,2.3835 3.9344,3.9344 l 5.1822,-2.0937 2.2489,5.5626 -5.1825,2.0939 C 52.4244,36.2891 52.5,37.1357 52.5,38 c 0,0.8643 -0.0756,1.7109 -0.2206,2.5337 l 5.1825,2.0938 -2.2489,5.5626 -5.1822,-2.0937 c -0.9513,1.4109 -2.1443,2.6454 -3.5196,3.6441 l 2.2732,5.1057 -5.4803,2.4429 -2.2734,-5.1063 C 40.0533,52.3906 39.0394,52.5 38,52.5 c -0.8643,0 -1.7109,-0.0756 -2.5336,-0.2206 l -2.0939,5.1826 -5.5626,-2.249 2.0937,-5.1821 c -1.5509,-1.0458 -2.8887,-2.3836 -3.9345,-3.9345 l -5.1821,2.0937 -2.249,-5.5626 5.1826,-2.0939 C 23.5756,39.7109 23.5,38.8643 23.5,38 c 0,-0.8643 0.0756,-1.7109 0.2206,-2.5336 l -5.1826,-2.0939 2.249,-5.5626 5.1821,2.0937 c 0.9514,-1.4109 2.1444,-2.6454 3.5198,-3.6442 l -2.2732,-5.1057 5.4802,-2.4428 2.2735,5.1063 C 35.9468,23.6094 36.9606,23.5 38,23.5 Z m 0,4.5 c -5.5229,0 -10,4.4772 -10,10 0,5.5229 4.4771,10 10,10 5.5228,0 10,-4.4771 10,-10 0,-5.5228 -4.4772,-10 -10,-10 z"
       id="path4"
       inkscape:connector-curvature="0" /></g><g
     inkscape:groupmode="layer"
     id="layer2"
     inkscape:label="inactive"
     style="display:none"><path
       id="path4160"
       d="m 38,23.5 c 0.8643,0 1.7109,0.0756 2.5337,0.2206 l 2.0938,-5.1825 5.5626,2.2489 -2.0937,5.1822 c 1.5509,1.0457 2.8887,2.3835 3.9344,3.9344 l 5.1822,-2.0937 2.2489,5.5626 -5.1825,2.0939 C 52.4244,36.2891 52.5,37.1357 52.5,38 c 0,0.8643 -0.0756,1.7109 -0.2206,2.5337 l 5.1825,2.0938 -2.2489,5.5626 -5.1822,-2.0937 c -0.9513,1.4109 -2.1443,2.6454 -3.5196,3.6441 l 2.2732,5.1057 -5.4803,2.4429 -2.2734,-5.1063 C 40.0533,52.3906 39.0394,52.5 38,52.5 c -0.8643,0 -1.7109,-0.0756 -2.5336,-0.2206 l -2.0939,5.1826 -5.5626,-2.249 2.0937,-5.1821 c -1.5509,-1.0458 -2.8887,-2.3836 -3.9345,-3.9345 l -5.1821,2.0937 -2.249,-5.5626 5.1826,-2.0939 C 23.5756,39.7109 23.5,38.8643 23.5,38 c 0,-0.8643 0.0756,-1.7109 0.2206,-2.5336 l -5.1826,-2.0939 2.249,-5.5626 5.1821,2.0937 c 0.9514,-1.4109 2.1444,-2.6454 3.5198,-3.6442 l -2.2732,-5.1057 5.4802,-2.4428 2.2735,5.1063 C 35.9468,23.6094 36.9606,23.5 38,23.5 Z m 0,4.5 c -5.5229,0 -10,4.4772 -10,10 0,5.5229 4.4771,10 10,10 5.5228,0 10,-4.4771 10,-10 0,-5.5228 -4.4772,-10 -10,-10 z"
       style="fill:#9b9b9b;fill-opacity:1;stroke-linejoin:round"
       inkscape:connector-curvature="0" /></g><g
     inkscape:groupmode="layer"
     id="layer3"
     inkscape:label="pressed"><path
       inkscape:connector-curvature="0"
       style="display:inline;fill:#ffffff;fill-opacity:1;stroke-linejoin:round"
       d="m 38,23.5 c 0.8643,0 1.7109,0.0756 2.5337,0.2206 l 2.0938,-5.1825 5.5626,2.2489 -2.0937,5.1822 c 1.5509,1.0457 2.8887,2.3835 3.9344,3.9344 l 5.1822,-2.0937 2.2489,5.5626 -5.1825,2.0939 C 52.4244,36.2891 52.5,37.1357 52.5,38 c 0,0.8643 -0.0756,1.7109 -0.2206,2.5337 l 5.1825,2.0938 -2.2489,5.5626 -5.1822,-2.0937 c -0.9513,1.4109 -2.1443,2.6454 -3.5196,3.6441 l 2.2732,5.1057 -5.4803,2.4429 -2.2734,-5.1063 C 40.0533,52.3906 39.0394,52.5 38,52.5 c -0.8643,0 -1.7109,-0.0756 -2.5336,-0.2206 l -2.0939,5.1826 -5.5626,-2.249 2.0937,-5.1821 c -1.5509,-1.0458 -2.8887,-2.3836 -3.9345,-3.9345 l -5.1821,2.0937 -2.249,-5.5626 5.1826,-2.0939 C 23.5756,39.7109 23.5,38.8643 23.5,38 c 0,-0.8643 0.0756,-1.7109 0.2206,-2.5336 l -5.1826,-2.0939 2.249,-5.5626 5.1821,2.0937 c 0.9514,-1.4109 2.1444,-2.6454 3.5198,-3.6442 l -2.2732,-5.1057 5.4802,-2.4428 2.2735,5.1063 C 35.9468,23.6094 36.9606,23.5 38,23.5 Z m 0,4.5 c -5.5229,0 -10,4.4772 -10,10 0,5.5229 4.4771,10 10,10 5.5228,0 10,-4.4771 10,-10 0,-5.5228 -4.4772,-10 -10,-10 z"
       id="path4164" /></g></svg>

﻿<?xml version="1.0" encoding="utf-8"?>
<!DOCTYPE svg PUBLIC "-//W3C//DTD SVG 1.1//EN" "http://www.w3.org/Graphics/SVG/1.1/DTD/svg11.dtd">
<svg xmlns="http://www.w3.org/2000/svg" xmlns:xlink="http://www.w3.org/1999/xlink" version="1.1" baseProfile="full" width="76" height="76" viewBox="0 0 76.00 76.00" enable-background="new 0 0 76.00 76.00" xml:space="preserve">
	<path fill="#000000" fill-opacity="1" stroke-linejoin="round" d="M 38,23.5C 38.8643,23.5 39.7109,23.5756 40.5337,23.7206L 42.6275,18.5381L 48.1901,20.787L 46.0964,25.9692C 47.6473,27.0149 48.9851,28.3527 50.0308,29.9036L 55.213,27.8099L 57.4619,33.3725L 52.2794,35.4664C 52.4244,36.2891 52.5,37.1357 52.5,38C 52.5,38.8643 52.4244,39.7109 52.2794,40.5337L 57.4619,42.6275L 55.213,48.1901L 50.0308,46.0964C 49.0795,47.5073 47.8865,48.7418 46.5112,49.7405L 48.7844,54.8462L 43.3041,57.2891L 41.0307,52.1828C 40.0533,52.3906 39.0394,52.5 38,52.5C 37.1357,52.5 36.2891,52.4244 35.4664,52.2794L 33.3725,57.462L 27.8099,55.213L 29.9036,50.0309C 28.3527,48.9851 27.0149,47.6473 25.9691,46.0964L 20.787,48.1901L 18.538,42.6275L 23.7206,40.5336C 23.5756,39.7109 23.5,38.8643 23.5,38C 23.5,37.1357 23.5756,36.2891 23.7206,35.4664L 18.538,33.3725L 20.787,27.8099L 25.9691,29.9036C 26.9205,28.4927 28.1135,27.2582 29.4889,26.2594L 27.2157,21.1537L 32.6959,18.7109L 34.9694,23.8172C 35.9468,23.6094 36.9606,23.5 38,23.5 Z M 38,28C 32.4771,28 28,32.4772 28,38C 28,43.5229 32.4771,48 38,48C 43.5228,48 48,43.5229 48,38C 48,32.4772 43.5228,28 38,28 Z "/>
</svg>
